X:1
T:Title
%%score { 1 | 2 }
L:1/8
M:3/4
K:Ab
V:1 treble nm="Grand Piano"
V:2 bass 
V:1
 z2 z2[Q:1/4=100] [CE]2 | [Ec]3 [CA] [DA]>[DF] | [DF] [CE]3 [CE]2 | E3 D FE | C4 [CE]2 | %5
 [Ec]3 [CA] [DA]>[DF] | [DF] [CE]3 [CE]2 | [B,E]3 [EG] [EG][=DF] | E4 E2 | d3 [EG] [EA][EB] | %10
 [Ec]2 [CA]2 c2 | e3 [EA] [EB][Ec] | B4 d2 | c3 [DB] [CA]E | F [FA]3 F2 | E3 A Bc |[M:2/4] [CA]4 | %17
[M:1/4] [CA]2 |[M:3/4] [EB]3 [EG] [EA][EB] | [Ec] [Ec]3 [Ec]2 | [=Ec]3 [Ed] [EG]>[EB] | %21
 [FA]4 [FA]2 | [FA]3 [=EG] (3[F-B][FA]F | [CE] [CA]3 [Ec]2 |[M:13/16] B/-B/-B-<BEBc3/2 | %25
[M:2/4] [CA]4 |] %26
V:2
 z2 z2 [A,,A,]2 | [A,,A,]3 [A,,E,] [D,F,]>[D,A,] | [A,,A,] [A,,A,]3 [A,,A,]2 | %3
 [E,G,B,]3 [E,G,B,] [E,G,B,][E,G,B,] | [A,,E,A,]4 [A,,A,]2 | [A,,A,]3 [A,,E,] [D,F,]>[D,A,] | %6
 [A,,A,] [A,,A,]3 [A,,A,]2 | [B,,G,]3 [B,,B,] [B,,B,][B,,A,] | [E,G,]4 [E,G,]2 | %9
 [E,G,E]3 [D,B,] [C,A,][B,,G,] | [A,,A,]2 [A,,E,]2 [A,E]2 | [A,CE]3 [C,A,] [B,,G,][A,,A,] | %12
 [E,G,E]4 [G,B,E]2 | [A,E]3 [A,,E,] [A,,E,][C,A,] | [D,A,D] [D,D]3 [D,A,D]2 | %15
 [E,A,C]3 [E,A,C] [E,G,D][E,E] |[M:2/4] [A,,E,]4 |[M:1/4] [A,,E,]2 | %18
[M:3/4] [E,G,]3 [D,B,] [C,A,][B,,G,] | [A,,A,] [A,,A,]3 [A,,A,]2 | [C,G,]3 [C,G,] [C,C]>[C,C] | %21
 [F,C]4 [F,C]2 | [D,D]3 [D,D] (3:2:2[D,D]2 [D,A,D] | [A,,A,] [A,,E,]3 [A,,A,]2 | %24
[M:13/16] [E,G,D]/-[E,G,D]/-[E,G,D]-<[E,G,D][E,G,D][E,G,D][E,E]3/2 |[M:2/4] [A,,E,]4 |] %26

